public/images/logo.svg

<svg fill="none" height="20" viewBox="0 0 120 20" width="120" xmlns="http://www.w3.org/2000/svg"><g fill="#fbc825"><path d="m5.72078.898876v12.134824c0 1.9101-.14447 2.5843-.31782 3.0056-.49118 1.1798-1.44464 1.2641-1.93582 1.2641-1.04014 0-1.64689-.3652-2.0225-.6742l-1.44464 2.4157c.577856.3652 1.70468.9551 3.40935.9551 2.62925 0 3.92943-1.5169 4.53617-2.6966.66454-1.2922.72232-2.7809.72232-4.2697v-12.134824z"/><path d="m26.7347.561799c-5.7786 0-10.0258 4.213481-10.0258 9.719101 0 5.5056 4.2472 9.7191 10.0258 9.7191 5.7785 0 10.0258-4.2135 10.0258-9.7191 0-5.50562-4.2473-9.719101-10.0258-9.719101zm0 16.797701c-4.1317 0-7.0788-2.9213-7.0788-7.0786s2.9471-7.07865 7.0788-7.07865c4.1316 0 7.0787 2.92135 7.0787 7.07865s-2.9471 7.0786-7.0787 7.0786z"/><path d="m48.2456 19.6348h2.9471v-8.0899l6.3275-10.646024h-3.3516l-4.4495 7.500004-4.4495-7.500004h-3.3515l6.3275 10.646024z"/><path d="m64.34 19.6348h3.9005c3.4383 0 5.2874-.7022 7.0499-2.1629 1.3868-1.1517 3.3805-3.2584 3.3805-7.191 0-3.37079-1.5314-5.75843-3.2938-7.19101-2.427-1.99438-5.1718-2.191014-7.1077-2.191014h-3.9294zm2.1381-16.76963h1.878c4.8829 0 8.1189 2.92135 8.1189 7.41573 0 2.6685-1.1557 4.5225-2.6004 5.7022-1.878 1.5169-3.9872 1.6854-5.5185 1.6854h-1.878z"/><path d="m99.8157 19.6348h2.3693l-8.6391-19.6348-8.8701 19.6348h2.3692l2.3115-5.2809h8.2055zm-9.6214-7.2472 3.2938-7.49996 3.236 7.49996z"/><path d="m111.477 19.6348h2.138v-8.0618l6.385-10.674124h-2.485l-4.969 8.370784-4.912-8.370784h-2.485l6.328 10.674124z"/></g></svg>

<svg width="120" height="20" viewBox="0 0 120 20" fill="none" xmlns="http://www.w3.org/2000/svg">
<path d="M5.72078 0.898876V13.0337C5.72078 14.9438 5.57631 15.618 5.40296 16.0393C4.91178 17.2191 3.95832 17.3034 3.46714 17.3034C2.427 17.3034 1.82025 16.9382 1.44464 16.6292L0 19.0449C0.577856 19.4101 1.70468 20 3.40935 20C6.0386 20 7.33878 18.4831 7.94552 17.3034C8.61006 16.0112 8.66784 14.5225 8.66784 13.0337V0.898876H5.72078Z" fill="#FBC825"/>
<path d="M26.7347 0.561799C20.9561 0.561799 16.7089 4.77528 16.7089 10.2809C16.7089 15.7865 20.9561 20 26.7347 20C32.5132 20 36.7605 15.7865 36.7605 10.2809C36.7605 4.77528 32.5132 0.561799 26.7347 0.561799ZM26.7347 17.3595C22.603 17.3595 19.6559 14.4382 19.6559 10.2809C19.6559 6.1236 22.603 3.20225 26.7347 3.20225C30.8663 3.20225 33.8134 6.1236 33.8134 10.2809C33.8134 14.4382 30.8663 17.3595 26.7347 17.3595Z" fill="#FBC825"/>
<path d="M48.2456 19.6348H51.1927V11.5449L57.5202 0.898876H54.1686L49.7191 8.39888L45.2696 0.898876H41.9181L48.2456 11.5449V19.6348Z" fill="#FBC825"/>
<path d="M64.34 19.6348H68.2405C71.6788 19.6348 73.5279 18.9326 75.2904 17.4719C76.6772 16.3202 78.6709 14.2135 78.6709 10.2809C78.6709 6.91011 77.1395 4.52247 75.3771 3.08989C72.9501 1.09551 70.2053 0.898876 68.2694 0.898876H64.34V19.6348ZM66.4781 2.86517H68.3561C73.239 2.86517 76.475 5.78652 76.475 10.2809C76.475 12.9494 75.3193 14.8034 73.8746 15.9831C71.9966 17.5 69.8874 17.6685 68.3561 17.6685H66.4781V2.86517Z" fill="#FBC825"/>
<path d="M99.8157 19.6348H102.185L93.5459 0L84.6758 19.6348H87.045L89.3565 14.3539H97.562L99.8157 19.6348ZM90.1943 12.3876L93.4881 4.88764L96.7241 12.3876H90.1943Z" fill="#FBC825"/>
<path d="M111.477 19.6348H113.615V11.573L120 0.898876H117.515L112.546 9.26966L107.634 0.898876H105.149L111.477 11.573V19.6348Z" fill="#FBC825"/>
</svg>
